X:61
T:Rolling Home (a)
M:3/4
L:1/8
Q:1/4=3D100
K:C
z2 E2 F2|\
G3 G^FG|A2 G2 EG|e3 cGE|D4 Bc|
d3 cBA |A2 G2 GG|B3 GAB|c4 EF|
G4 EG  |c4    EG|e3 cGE|D4 Bc|
M:4/4
L:1/8
d6 c2|B2F2 A4|G4 ^F2G2|
B6 G2|A2B2 c4||
